documentation/public/assets/images/05-cta.svg

<svg width="672" height="106" viewBox="0 0 672 106" fill="none" xmlns="http://www.w3.org/2000/svg">
<rect width="672" height="106" fill="#F6F6F6"/>
<rect x="193" y="32" width="132" height="42" rx="4" fill="#0F67F5"/>
<path d="M230.164 59V47.5469H233.875C235.281 47.5469 236.198 47.6042 236.625 47.7188C237.281 47.8906 237.831 48.2656 238.273 48.8438C238.716 49.4167 238.938 50.1589 238.938 51.0703C238.938 51.7734 238.81 52.3646 238.555 52.8438C238.299 53.3229 237.974 53.7005 237.578 53.9766C237.188 54.2474 236.789 54.4271 236.383 54.5156C235.831 54.625 235.031 54.6797 233.984 54.6797H232.477V59H230.164ZM232.477 49.4844V52.7344H233.742C234.654 52.7344 235.263 52.6745 235.57 52.5547C235.878 52.4349 236.117 52.2474 236.289 51.9922C236.466 51.737 236.555 51.4401 236.555 51.1016C236.555 50.6849 236.432 50.3411 236.188 50.0703C235.943 49.7995 235.633 49.6302 235.258 49.5625C234.982 49.5104 234.427 49.4844 233.594 49.4844H232.477ZM242.922 59H240.727V50.7031H242.766V51.8828C243.115 51.3255 243.427 50.9583 243.703 50.7812C243.984 50.6042 244.302 50.5156 244.656 50.5156C245.156 50.5156 245.638 50.6536 246.102 50.9297L245.422 52.8438C245.052 52.6042 244.708 52.4844 244.391 52.4844C244.083 52.4844 243.823 52.5703 243.609 52.7422C243.396 52.9089 243.227 53.2135 243.102 53.6562C242.982 54.099 242.922 55.026 242.922 56.4375V59ZM247.055 49.5781V47.5469H249.25V49.5781H247.055ZM247.055 59V50.7031H249.25V59H247.055ZM251.344 50.7031H253.367V51.8359C254.091 50.9557 254.953 50.5156 255.953 50.5156C256.484 50.5156 256.945 50.625 257.336 50.8438C257.727 51.0625 258.047 51.3932 258.297 51.8359C258.661 51.3932 259.055 51.0625 259.477 50.8438C259.898 50.625 260.349 50.5156 260.828 50.5156C261.438 50.5156 261.953 50.6406 262.375 50.8906C262.797 51.1354 263.112 51.4974 263.32 51.9766C263.471 52.3307 263.547 52.9036 263.547 53.6953V59H261.352V54.2578C261.352 53.4349 261.276 52.9036 261.125 52.6641C260.922 52.3516 260.609 52.1953 260.188 52.1953C259.88 52.1953 259.591 52.2891 259.32 52.4766C259.049 52.6641 258.854 52.9401 258.734 53.3047C258.615 53.6641 258.555 54.2344 258.555 55.0156V59H256.359V54.4531C256.359 53.6458 256.32 53.125 256.242 52.8906C256.164 52.6562 256.042 52.4818 255.875 52.3672C255.714 52.2526 255.492 52.1953 255.211 52.1953C254.872 52.1953 254.568 52.2865 254.297 52.4688C254.026 52.651 253.831 52.9141 253.711 53.2578C253.596 53.6016 253.539 54.1719 253.539 54.9688V59H251.344V50.7031ZM267.383 53.2344L265.391 52.875C265.615 52.0729 266 51.4792 266.547 51.0938C267.094 50.7083 267.906 50.5156 268.984 50.5156C269.964 50.5156 270.693 50.6328 271.172 50.8672C271.651 51.0964 271.987 51.3906 272.18 51.75C272.378 52.1042 272.477 52.7578 272.477 53.7109L272.453 56.2734C272.453 57.0026 272.487 57.5417 272.555 57.8906C272.628 58.2344 272.76 58.6042 272.953 59H270.781C270.724 58.8542 270.654 58.638 270.57 58.3516C270.534 58.2214 270.508 58.1354 270.492 58.0938C270.117 58.4583 269.716 58.7318 269.289 58.9141C268.862 59.0964 268.406 59.1875 267.922 59.1875C267.068 59.1875 266.393 58.9557 265.898 58.4922C265.409 58.0286 265.164 57.4427 265.164 56.7344C265.164 56.2656 265.276 55.849 265.5 55.4844C265.724 55.1146 266.036 54.8333 266.438 54.6406C266.844 54.4427 267.427 54.2708 268.188 54.125C269.214 53.9323 269.924 53.7526 270.32 53.5859V53.3672C270.32 52.9453 270.216 52.6458 270.008 52.4688C269.799 52.2865 269.406 52.1953 268.828 52.1953C268.438 52.1953 268.133 52.2734 267.914 52.4297C267.695 52.5807 267.518 52.849 267.383 53.2344ZM270.32 55.0156C270.039 55.1094 269.594 55.2214 268.984 55.3516C268.375 55.4818 267.977 55.6094 267.789 55.7344C267.503 55.9375 267.359 56.1953 267.359 56.5078C267.359 56.8151 267.474 57.0807 267.703 57.3047C267.932 57.5286 268.224 57.6406 268.578 57.6406C268.974 57.6406 269.352 57.5104 269.711 57.25C269.977 57.0521 270.151 56.8099 270.234 56.5234C270.292 56.3359 270.32 55.9792 270.32 55.4531V55.0156ZM276.75 59H274.555V50.7031H276.594V51.8828C276.943 51.3255 277.255 50.9583 277.531 50.7812C277.812 50.6042 278.13 50.5156 278.484 50.5156C278.984 50.5156 279.466 50.6536 279.93 50.9297L279.25 52.8438C278.88 52.6042 278.536 52.4844 278.219 52.4844C277.911 52.4844 277.651 52.5703 277.438 52.7422C277.224 52.9089 277.055 53.2135 276.93 53.6562C276.81 54.099 276.75 55.026 276.75 56.4375V59ZM279.844 50.7031H282.18L284.164 56.5938L286.102 50.7031H288.375L285.445 58.6875L284.922 60.1328C284.729 60.6172 284.544 60.987 284.367 61.2422C284.195 61.4974 283.995 61.7031 283.766 61.8594C283.542 62.0208 283.263 62.1458 282.93 62.2344C282.602 62.3229 282.229 62.3672 281.812 62.3672C281.391 62.3672 280.977 62.3229 280.57 62.2344L280.375 60.5156C280.719 60.5833 281.029 60.6172 281.305 60.6172C281.815 60.6172 282.193 60.4661 282.438 60.1641C282.682 59.8672 282.87 59.487 283 59.0234L279.844 50.7031Z" fill="white"/>
<rect x="350" y="33" width="128" height="40" rx="3" fill="white"/>
<path d="M373.578 55.2734L375.828 55.0547C375.964 55.8099 376.237 56.3646 376.648 56.7188C377.065 57.0729 377.625 57.25 378.328 57.25C379.073 57.25 379.633 57.0938 380.008 56.7812C380.388 56.4635 380.578 56.0938 380.578 55.6719C380.578 55.401 380.497 55.1719 380.336 54.9844C380.18 54.7917 379.904 54.625 379.508 54.4844C379.237 54.3906 378.62 54.224 377.656 53.9844C376.417 53.6771 375.547 53.2995 375.047 52.8516C374.344 52.2214 373.992 51.4531 373.992 50.5469C373.992 49.9635 374.156 49.4193 374.484 48.9141C374.818 48.4036 375.294 48.0156 375.914 47.75C376.539 47.4844 377.292 47.3516 378.172 47.3516C379.609 47.3516 380.69 47.6667 381.414 48.2969C382.143 48.9271 382.526 49.7682 382.562 50.8203L380.25 50.9219C380.151 50.3333 379.938 49.9115 379.609 49.6562C379.286 49.3958 378.799 49.2656 378.148 49.2656C377.477 49.2656 376.951 49.4036 376.57 49.6797C376.326 49.8568 376.203 50.0938 376.203 50.3906C376.203 50.6615 376.318 50.8932 376.547 51.0859C376.839 51.3307 377.547 51.5859 378.672 51.8516C379.797 52.1172 380.628 52.3932 381.164 52.6797C381.706 52.9609 382.128 53.349 382.43 53.8438C382.737 54.3333 382.891 54.9401 382.891 55.6641C382.891 56.3203 382.708 56.9349 382.344 57.5078C381.979 58.0807 381.464 58.5078 380.797 58.7891C380.13 59.0651 379.299 59.2031 378.305 59.2031C376.857 59.2031 375.745 58.8698 374.969 58.2031C374.193 57.5312 373.729 56.5547 373.578 55.2734ZM389.625 56.3594L391.812 56.7266C391.531 57.5286 391.086 58.1406 390.477 58.5625C389.872 58.9792 389.115 59.1875 388.203 59.1875C386.76 59.1875 385.693 58.7161 385 57.7734C384.453 57.0182 384.18 56.0651 384.18 54.9141C384.18 53.5391 384.539 52.4635 385.258 51.6875C385.977 50.9062 386.885 50.5156 387.984 50.5156C389.219 50.5156 390.193 50.9245 390.906 51.7422C391.62 52.5547 391.961 53.8021 391.93 55.4844H386.43C386.445 56.1354 386.622 56.6432 386.961 57.0078C387.299 57.3672 387.721 57.5469 388.227 57.5469C388.57 57.5469 388.859 57.4531 389.094 57.2656C389.328 57.0781 389.505 56.776 389.625 56.3594ZM389.75 54.1406C389.734 53.5052 389.57 53.0234 389.258 52.6953C388.945 52.362 388.565 52.1953 388.117 52.1953C387.638 52.1953 387.242 52.3698 386.93 52.7188C386.617 53.0677 386.464 53.5417 386.469 54.1406H389.75ZM400.961 53.1562L398.797 53.5469C398.724 53.1146 398.557 52.7891 398.297 52.5703C398.042 52.3516 397.708 52.2422 397.297 52.2422C396.75 52.2422 396.312 52.4323 395.984 52.8125C395.661 53.1875 395.5 53.8177 395.5 54.7031C395.5 55.6875 395.664 56.3828 395.992 56.7891C396.326 57.1953 396.771 57.3984 397.328 57.3984C397.745 57.3984 398.086 57.2812 398.352 57.0469C398.617 56.8073 398.805 56.3984 398.914 55.8203L401.07 56.1875C400.846 57.1771 400.417 57.9245 399.781 58.4297C399.146 58.9349 398.294 59.1875 397.227 59.1875C396.013 59.1875 395.044 58.8047 394.32 58.0391C393.602 57.2734 393.242 56.2135 393.242 54.8594C393.242 53.4896 393.604 52.4245 394.328 51.6641C395.052 50.8984 396.031 50.5156 397.266 50.5156C398.276 50.5156 399.078 50.7344 399.672 51.1719C400.271 51.6042 400.701 52.2656 400.961 53.1562ZM402.125 54.7344C402.125 54.0052 402.305 53.2995 402.664 52.6172C403.023 51.9349 403.531 51.4141 404.188 51.0547C404.849 50.6953 405.586 50.5156 406.398 50.5156C407.654 50.5156 408.682 50.9245 409.484 51.7422C410.286 52.5547 410.688 53.5833 410.688 54.8281C410.688 56.0833 410.281 57.125 409.469 57.9531C408.661 58.776 407.643 59.1875 406.414 59.1875C405.654 59.1875 404.927 59.0156 404.234 58.6719C403.547 58.3281 403.023 57.8255 402.664 57.1641C402.305 56.4974 402.125 55.6875 402.125 54.7344ZM404.375 54.8516C404.375 55.6745 404.57 56.3047 404.961 56.7422C405.352 57.1797 405.833 57.3984 406.406 57.3984C406.979 57.3984 407.458 57.1797 407.844 56.7422C408.234 56.3047 408.43 55.6693 408.43 54.8359C408.43 54.0234 408.234 53.3984 407.844 52.9609C407.458 52.5234 406.979 52.3047 406.406 52.3047C405.833 52.3047 405.352 52.5234 404.961 52.9609C404.57 53.3984 404.375 54.0286 404.375 54.8516ZM419.961 59H417.766V54.7656C417.766 53.8698 417.719 53.2917 417.625 53.0312C417.531 52.7656 417.378 52.5599 417.164 52.4141C416.956 52.2682 416.703 52.1953 416.406 52.1953C416.026 52.1953 415.685 52.2995 415.383 52.5078C415.081 52.7161 414.872 52.9922 414.758 53.3359C414.648 53.6797 414.594 54.3151 414.594 55.2422V59H412.398V50.7031H414.438V51.9219C415.161 50.9844 416.073 50.5156 417.172 50.5156C417.656 50.5156 418.099 50.6042 418.5 50.7812C418.901 50.9531 419.203 51.1745 419.406 51.4453C419.615 51.7161 419.758 52.0234 419.836 52.3672C419.919 52.7109 419.961 53.2031 419.961 53.8438V59ZM429.805 59H427.766V57.7812C427.427 58.2552 427.026 58.6094 426.562 58.8438C426.104 59.0729 425.641 59.1875 425.172 59.1875C424.219 59.1875 423.401 58.8047 422.719 58.0391C422.042 57.2682 421.703 56.1953 421.703 54.8203C421.703 53.4141 422.034 52.3464 422.695 51.6172C423.357 50.8828 424.193 50.5156 425.203 50.5156C426.13 50.5156 426.932 50.901 427.609 51.6719V47.5469H429.805V59ZM423.945 54.6719C423.945 55.5573 424.068 56.1979 424.312 56.5938C424.667 57.1667 425.161 57.4531 425.797 57.4531C426.302 57.4531 426.732 57.2396 427.086 56.8125C427.44 56.3802 427.617 55.737 427.617 54.8828C427.617 53.9297 427.445 53.2448 427.102 52.8281C426.758 52.4062 426.318 52.1953 425.781 52.1953C425.26 52.1953 424.823 52.4036 424.469 52.8203C424.12 53.2318 423.945 53.849 423.945 54.6719ZM433.617 53.2344L431.625 52.875C431.849 52.0729 432.234 51.4792 432.781 51.0938C433.328 50.7083 434.141 50.5156 435.219 50.5156C436.198 50.5156 436.927 50.6328 437.406 50.8672C437.885 51.0964 438.221 51.3906 438.414 51.75C438.612 52.1042 438.711 52.7578 438.711 53.7109L438.688 56.2734C438.688 57.0026 438.721 57.5417 438.789 57.8906C438.862 58.2344 438.995 58.6042 439.188 59H437.016C436.958 58.8542 436.888 58.638 436.805 58.3516C436.768 58.2214 436.742 58.1354 436.727 58.0938C436.352 58.4583 435.951 58.7318 435.523 58.9141C435.096 59.0964 434.641 59.1875 434.156 59.1875C433.302 59.1875 432.628 58.9557 432.133 58.4922C431.643 58.0286 431.398 57.4427 431.398 56.7344C431.398 56.2656 431.51 55.849 431.734 55.4844C431.958 55.1146 432.271 54.8333 432.672 54.6406C433.078 54.4427 433.661 54.2708 434.422 54.125C435.448 53.9323 436.159 53.7526 436.555 53.5859V53.3672C436.555 52.9453 436.451 52.6458 436.242 52.4688C436.034 52.2865 435.641 52.1953 435.062 52.1953C434.672 52.1953 434.367 52.2734 434.148 52.4297C433.93 52.5807 433.753 52.849 433.617 53.2344ZM436.555 55.0156C436.273 55.1094 435.828 55.2214 435.219 55.3516C434.609 55.4818 434.211 55.6094 434.023 55.7344C433.737 55.9375 433.594 56.1953 433.594 56.5078C433.594 56.8151 433.708 57.0807 433.938 57.3047C434.167 57.5286 434.458 57.6406 434.812 57.6406C435.208 57.6406 435.586 57.5104 435.945 57.25C436.211 57.0521 436.385 56.8099 436.469 56.5234C436.526 56.3359 436.555 55.9792 436.555 55.4531V55.0156ZM442.984 59H440.789V50.7031H442.828V51.8828C443.177 51.3255 443.49 50.9583 443.766 50.7812C444.047 50.6042 444.365 50.5156 444.719 50.5156C445.219 50.5156 445.701 50.6536 446.164 50.9297L445.484 52.8438C445.115 52.6042 444.771 52.4844 444.453 52.4844C444.146 52.4844 443.885 52.5703 443.672 52.7422C443.458 52.9089 443.289 53.2135 443.164 53.6562C443.044 54.099 442.984 55.026 442.984 56.4375V59ZM446.078 50.7031H448.414L450.398 56.5938L452.336 50.7031H454.609L451.68 58.6875L451.156 60.1328C450.964 60.6172 450.779 60.987 450.602 61.2422C450.43 61.4974 450.229 61.7031 450 61.8594C449.776 62.0208 449.497 62.1458 449.164 62.2344C448.836 62.3229 448.464 62.3672 448.047 62.3672C447.625 62.3672 447.211 62.3229 446.805 62.2344L446.609 60.5156C446.953 60.5833 447.263 60.6172 447.539 60.6172C448.049 60.6172 448.427 60.4661 448.672 60.1641C448.917 59.8672 449.104 59.487 449.234 59.0234L446.078 50.7031Z" fill="#0F67F5"/>
<rect x="350" y="33" width="128" height="40" rx="3" stroke="#0F67F5" stroke-width="2"/>
</svg>

<svg width="672" height="106" fill="none" xmlns="http://www.w3.org/2000/svg"><path fill="#F6F6F6" d="M0 0h672v106H0z"/><rect x="193" y="32" width="132" height="42" rx="4" fill="#0F67F5"/><path d="M230.16 59V47.55h3.72c1.4 0 2.32.05 2.75.17a3 3 0 0 1 1.64 1.12c.45.58.67 1.32.67 2.23 0 .7-.13 1.3-.38 1.77a3.17 3.17 0 0 1-2.18 1.68c-.55.1-1.35.16-2.4.16h-1.5V59h-2.32Zm2.32-9.52v3.25h1.26a6 6 0 0 0 1.83-.18 1.52 1.52 0 0 0 .99-1.45c0-.42-.13-.76-.37-1.03a1.6 1.6 0 0 0-.93-.5 9.73 9.73 0 0 0-1.67-.09h-1.11ZM242.92 59h-2.2v-8.3h2.05v1.18c.34-.55.66-.92.93-1.1.28-.18.6-.26.96-.26.5 0 .98.13 1.44.41l-.68 1.91a1.93 1.93 0 0 0-1.03-.36c-.3 0-.57.09-.78.26-.21.17-.38.47-.5.92a13.3 13.3 0 0 0-.19 2.78V59Zm4.14-9.42v-2.03h2.19v2.03h-2.2Zm0 9.42v-8.3h2.19V59h-2.2Zm4.28-8.3h2.03v1.14a3.26 3.26 0 0 1 2.58-1.32c.53 0 1 .1 1.39.32.39.22.7.55.96 1 .36-.45.75-.78 1.18-1 .42-.22.87-.32 1.35-.32.6 0 1.12.12 1.55.37.42.25.73.6.94 1.09.15.35.23.92.23 1.72V59h-2.2v-4.74c0-.83-.07-1.36-.23-1.6-.2-.3-.51-.46-.93-.46a1.54 1.54 0 0 0-1.46 1.1c-.12.36-.18.93-.18 1.72V59h-2.2v-4.55c0-.8-.03-1.33-.1-1.56a.99.99 0 0 0-.38-.52 1.13 1.13 0 0 0-.66-.17 1.52 1.52 0 0 0-1.5 1.06 6.1 6.1 0 0 0-.17 1.7V59h-2.2v-8.3Zm16.04 2.53-1.99-.35c.23-.8.61-1.4 1.16-1.79a4.23 4.23 0 0 1 2.43-.57c.98 0 1.71.11 2.2.35.47.23.8.52 1 .88.2.35.3 1 .3 1.96l-.03 2.56c0 .73.04 1.27.1 1.62.08.34.21.71.4 1.11h-2.17a8.48 8.48 0 0 1-.29-.9c-.37.36-.77.63-1.2.81-.43.19-.88.28-1.37.28a2.8 2.8 0 0 1-2.02-.7 2.32 2.32 0 0 1-.74-1.76c0-.46.12-.88.34-1.25.22-.37.54-.65.94-.84.4-.2.99-.37 1.75-.52 1.02-.19 1.73-.37 2.13-.53v-.22c0-.42-.1-.72-.31-.9-.21-.18-.6-.27-1.18-.27-.4 0-.7.07-.92.23-.22.15-.4.42-.53.8Zm2.94 1.79c-.28.09-.73.2-1.34.33-.6.13-1 .26-1.2.38a.92.92 0 0 0-.42.78c0 .3.11.57.34.8.23.22.52.33.88.33.4 0 .77-.13 1.13-.39.27-.2.44-.44.52-.73.06-.18.09-.54.09-1.07v-.43Zm6.43 3.98h-2.2v-8.3h2.04v1.18c.35-.55.67-.92.94-1.1.28-.18.6-.26.95-.26.5 0 .99.13 1.45.41l-.68 1.91a1.93 1.93 0 0 0-1.03-.36c-.3 0-.57.09-.78.26-.22.17-.38.47-.51.92a13.3 13.3 0 0 0-.18 2.78V59Zm3.1-8.3h2.33l1.98 5.9 1.94-5.9h2.27l-2.93 7.99-.52 1.44c-.2.49-.38.86-.55 1.11-.18.26-.38.46-.6.62-.23.16-.5.29-.84.37-.33.1-.7.14-1.12.14-.42 0-.83-.05-1.24-.14l-.2-1.71c.35.06.66.1.94.1.5 0 .88-.15 1.13-.46.24-.3.43-.67.56-1.14l-3.16-8.32Z" fill="#fff"/><rect x="350" y="33" width="128" height="40" rx="3" fill="#fff"/><path d="m373.58 55.27 2.25-.22c.13.76.4 1.31.82 1.67.42.35.98.53 1.68.53.74 0 1.3-.16 1.68-.47.38-.32.57-.69.57-1.1 0-.28-.08-.5-.24-.7a2.04 2.04 0 0 0-.83-.5c-.27-.09-.89-.26-1.85-.5a6.28 6.28 0 0 1-2.61-1.13 2.98 2.98 0 0 1-.57-3.94c.34-.5.81-.9 1.43-1.16a5.7 5.7 0 0 1 2.26-.4c1.44 0 2.52.32 3.24.95a3.33 3.33 0 0 1 1.15 2.52l-2.31.1c-.1-.59-.31-1-.64-1.26-.32-.26-.81-.4-1.46-.4-.67 0-1.2.14-1.58.42a.84.84 0 0 0-.37.71c0 .27.12.5.35.7.29.24 1 .5 2.12.76 1.13.27 1.96.54 2.5.83a3.14 3.14 0 0 1 1.72 2.98 3.38 3.38 0 0 1-2.1 3.13c-.66.28-1.5.41-2.49.41a4.97 4.97 0 0 1-3.33-1 4.38 4.38 0 0 1-1.4-2.93Zm16.05 1.09 2.18.37a3.6 3.6 0 0 1-1.33 1.83 3.9 3.9 0 0 1-2.28.63c-1.44 0-2.5-.47-3.2-1.42a4.75 4.75 0 0 1-.82-2.86c0-1.37.36-2.45 1.08-3.22a3.54 3.54 0 0 1 2.72-1.17c1.24 0 2.21.4 2.93 1.22.71.81 1.05 2.06 1.02 3.74h-5.5c.01.66.2 1.16.53 1.53.34.36.76.54 1.27.54.34 0 .63-.1.86-.28.24-.2.42-.5.54-.91Zm.12-2.22c-.02-.63-.18-1.12-.5-1.44a1.5 1.5 0 0 0-1.13-.5c-.48 0-.88.17-1.19.52-.31.35-.47.82-.46 1.42h3.28Zm11.21-.98-2.16.39a1.56 1.56 0 0 0-.5-.98 1.48 1.48 0 0 0-1-.33c-.55 0-.99.2-1.32.57-.32.38-.48 1-.48 1.9 0 .98.16 1.67.5 2.08.33.4.77.6 1.33.6.42 0 .76-.1 1.02-.34.27-.24.45-.65.56-1.23l2.16.37a3.82 3.82 0 0 1-1.29 2.24c-.63.5-1.49.76-2.55.76a3.81 3.81 0 0 1-2.91-1.15 4.47 4.47 0 0 1-1.08-3.18c0-1.37.36-2.44 1.09-3.2a3.85 3.85 0 0 1 2.94-1.14c1 0 1.8.21 2.4.65.6.43 1.03 1.1 1.3 1.99Zm1.17 1.57c0-.72.18-1.43.53-2.11a3.7 3.7 0 0 1 1.53-1.57c.66-.35 1.4-.53 2.2-.53a4.13 4.13 0 0 1 4.3 4.3c0 1.26-.4 2.3-1.22 3.13a4.1 4.1 0 0 1-3.06 1.24 4.8 4.8 0 0 1-2.18-.52 3.55 3.55 0 0 1-1.57-1.5 5.06 5.06 0 0 1-.54-2.44Zm2.25.12c0 .82.19 1.45.58 1.9.4.43.87.65 1.45.65.57 0 1.05-.22 1.43-.66.4-.44.59-1.07.59-1.9 0-.82-.2-1.44-.59-1.88a1.84 1.84 0 0 0-1.43-.66c-.58 0-1.06.22-1.45.66-.39.44-.58 1.07-.58 1.9ZM419.95 59h-2.2v-4.23c0-.9-.04-1.48-.13-1.74a1.2 1.2 0 0 0-.47-.62 1.3 1.3 0 0 0-.75-.21c-.38 0-.73.1-1.03.3-.3.22-.5.5-.62.84a7.3 7.3 0 0 0-.17 1.9V59h-2.2v-8.3h2.05v1.22a3.32 3.32 0 0 1 2.73-1.4c.49 0 .93.08 1.33.26a2.16 2.16 0 0 1 1.34 1.59c.08.34.12.83.12 1.47V59Zm9.85 0h-2.04v-1.22a3.25 3.25 0 0 1-2.6 1.41 3.2 3.2 0 0 1-2.45-1.15 4.72 4.72 0 0 1-1.02-3.22c0-1.4.33-2.47 1-3.2a3.23 3.23 0 0 1 4.9.05v-4.12h2.2V59Zm-5.87-4.33c0 .89.13 1.53.37 1.92.36.58.85.86 1.49.86.5 0 .93-.21 1.29-.64.35-.43.53-1.07.53-1.93 0-.95-.18-1.64-.52-2.05a1.63 1.63 0 0 0-1.32-.63c-.52 0-.96.2-1.31.62-.35.41-.53 1.03-.53 1.85Zm9.68-1.44-2-.35c.23-.8.61-1.4 1.16-1.79a4.23 4.23 0 0 1 2.44-.57c.98 0 1.7.11 2.19.35.47.23.81.52 1 .88.2.35.3 1 .3 1.96l-.02 2.56c0 .73.03 1.27.1 1.62.07.34.2.71.4 1.11h-2.17a7.67 7.67 0 0 1-.3-.9c-.37.36-.77.63-1.2.81-.42.19-.88.28-1.36.28-.86 0-1.53-.23-2.03-.7a2.32 2.32 0 0 1-.73-1.76c0-.46.11-.88.33-1.25.23-.37.54-.65.94-.84.4-.2 1-.37 1.75-.52 1.03-.19 1.74-.37 2.13-.53v-.22c0-.42-.1-.72-.3-.9-.22-.18-.6-.27-1.19-.27-.39 0-.7.07-.91.23-.22.15-.4.42-.53.8Zm2.94 1.79c-.29.09-.73.2-1.34.33-.61.13-1 .26-1.2.38a.92.92 0 0 0-.43.78c0 .3.12.57.35.8.23.22.52.33.87.33.4 0 .78-.13 1.13-.39.27-.2.44-.44.53-.73.06-.18.08-.54.08-1.07v-.43Zm6.42 3.98h-2.2v-8.3h2.05v1.18c.35-.55.66-.92.94-1.1.28-.18.6-.26.95-.26.5 0 .98.13 1.44.41l-.68 1.91a1.92 1.92 0 0 0-1.03-.36c-.3 0-.56.09-.78.26-.21.17-.38.47-.5.92a13.3 13.3 0 0 0-.19 2.78V59Zm3.1-8.3h2.33l1.99 5.9 1.94-5.9h2.27l-2.93 7.99-.52 1.44c-.2.49-.38.86-.56 1.11a2.32 2.32 0 0 1-1.44.99c-.32.1-.7.14-1.11.14-.43 0-.84-.05-1.25-.14l-.2-1.71c.35.06.66.1.94.1.5 0 .89-.15 1.13-.46.25-.3.43-.67.56-1.14l-3.15-8.32Z" fill="#0F67F5"/><rect x="350" y="33" width="128" height="40" rx="3" stroke="#0F67F5" stroke-width="2"/></svg>
